icons/desktop/16/svg/send-tab-to-device-right-16.svg

<svg width="20" height="20" viewBox="0 0 20 20" fill="none" xmlns="http://www.w3.org/2000/svg">
<path fill-rule="evenodd" clip-rule="evenodd" d="M5.5 3C6.09699 3 6.81884 3.03567 7.63086 3.15137L7.88086 3.19922C9.1076 3.49149 9.99996 4.59353 10 5.87891V14.123C9.99998 15.518 8.9621 16.66 7.60645 16.8516C6.97243 16.9409 6.2664 17 5.5 17C5.0523 17 4.53443 16.9798 3.96094 16.9209L3.36914 16.8486C2.01566 16.6551 1.00005 15.4922 1 14.1211V5.87695C1.00002 4.48198 2.0379 3.33997 3.39355 3.14844C4.02757 3.05908 4.7336 3 5.5 3ZM4.875 14.375C4.53 14.375 4.25 14.655 4.25 15C4.25 15.345 4.53 15.625 4.875 15.625H6.125C6.47 15.625 6.75 15.345 6.75 15C6.75 14.655 6.47 14.375 6.125 14.375H4.875ZM5.5 4.5C4.81049 4.5 4.17447 4.55317 3.60254 4.63379C2.96243 4.72442 2.50002 5.2541 2.5 5.87695V13H8.5V5.87891C8.49996 5.297 8.09347 4.79204 7.5332 4.6582L7.41895 4.63672C6.68705 4.53245 6.03695 4.5 5.5 4.5Z" fill="black"/>
<path d="M13.7051 7.62207C13.9671 7.36012 14.416 7.54603 14.416 7.91699L14.417 7.91602V9.25H17.25C17.6641 9.25019 18 9.5859 18 10C18 10.4141 17.6641 10.7498 17.25 10.75H14.417V12.0811C14.417 12.453 13.9681 12.638 13.7061 12.376L11.623 10.293C11.46 10.131 11.46 9.8671 11.623 9.7041L13.7051 7.62207Z" fill="black"/>
</svg>

<!-- This Source Code Form is subject to the terms of the Mozilla Public
   - License, v. 2.0. If a copy of the MPL was not distributed with this
   - file, You can obtain one at http://mozilla.org/MPL/2.0/. -->
<svg xmlns="http://www.w3.org/2000/svg" width="20" height="20" fill="context-fill" fill-opacity="context-fill-opacity" viewBox="0 0 20 20">
    <path fill-rule="evenodd" d="M5.5 3c.597 0 1.319.036 2.13.151l.25.048A2.76 2.76 0 0 1 10 5.88v8.244c0 1.395-1.038 2.537-2.394 2.729a15 15 0 0 1-3.645.069l-.592-.072A2.76 2.76 0 0 1 1 14.12V5.877C1 4.482 2.038 3.34 3.394 3.148 4.028 3.06 4.734 3 5.5 3m-.625 11.375a.625.625 0 0 0 0 1.25h1.25a.625.625 0 0 0 0-1.25zM5.5 4.5c-.69 0-1.326.053-1.897.134-.64.09-1.103.62-1.103 1.243V13h6V5.879c0-.582-.407-1.087-.967-1.22l-.114-.022A14 14 0 0 0 5.5 4.5" clip-rule="evenodd" />
    <path d="M13.705 7.622a.417.417 0 0 1 .711.295l.001-.001V9.25h2.833a.75.75 0 0 1 0 1.5h-2.833v1.331a.416.416 0 0 1-.71.295l-2.084-2.083a.416.416 0 0 1 0-.589z" />
</svg>
